X:10
T:Janiman Kavrakh
A:Assyri\"e
M:6/8
K:Am
"Am"c2c c3| c2c c3 | c2d dcB| cdB c3| c2d dcB| cdB c3|\
"Dm"c2d dcB|"Am"cdB cBA| ABc "Dm"dcB| cdd dcB |"Am"cdB cBA| A3 A3||
